icons-rebrand/svg/file-bug-filled.svg

<svg width="32" height="32" viewBox="0 0 32 32" fill="none" xmlns="http://www.w3.org/2000/svg">
<path d="M15.3754 21.9937H16.6244C16.9891 21.9933 17.3387 21.8484 17.5967 21.5906C17.8546 21.3329 17.9998 20.9833 18.0004 20.6187V16.8306C18.0003 16.6104 17.9128 16.3992 17.7572 16.2434C17.6016 16.0876 17.3905 15.9999 17.1703 15.9995H14.8305C14.6103 15.9999 14.3992 16.0876 14.2436 16.2434C14.088 16.3992 14.0005 16.6104 14.0004 16.8306V20.6187C14.0009 20.9832 14.146 21.3326 14.4037 21.5904C14.6615 21.8481 15.0109 21.9931 15.3754 21.9937Z" fill="black"/>
<path fill-rule="evenodd" clip-rule="evenodd" d="M8.99994 2.49974H22.9999C24.193 2.50105 25.3368 2.97557 26.1805 3.8192C27.0241 4.66283 27.4986 5.80667 27.4999 6.99974V24.9997C27.4986 26.1928 27.0241 27.3367 26.1805 28.1803C25.3368 29.0239 24.193 29.4984 22.9999 29.4997H8.99994C7.80686 29.4984 6.66303 29.0239 5.81939 28.1803C4.97576 27.3367 4.50124 26.1928 4.49994 24.9997V6.99974C4.50124 5.80667 4.97577 4.66283 5.8194 3.8192C6.66303 2.97557 7.80686 2.50104 8.99994 2.49974ZM22.4825 20.4944C22.9099 20.8134 23.2236 21.2613 23.3773 21.772L23.9582 23.7124C23.9959 23.8382 24.0085 23.9702 23.9952 24.1009C23.9819 24.2315 23.943 24.3583 23.8807 24.4739C23.8184 24.5896 23.7339 24.6918 23.6321 24.7747C23.5303 24.8577 23.4131 24.9198 23.2873 24.9575C23.1941 24.9852 23.0974 24.9994 23.0002 24.9995C22.7851 24.9995 22.5757 24.9302 22.4031 24.8018C22.2306 24.6733 22.104 24.4927 22.0422 24.2866L21.4602 22.3433C21.4311 22.2445 21.3709 22.1577 21.2886 22.0958C21.2063 22.0339 21.1062 22.0001 21.0032 21.9995H19.6974C19.4315 22.5924 19 23.096 18.4549 23.4497C17.9098 23.8035 17.2741 23.9923 16.6243 23.9937H15.3753C14.7256 23.9924 14.09 23.8035 13.545 23.4497C13.0001 23.096 12.5688 22.5924 12.3031 21.9995H10.9964C10.8935 21.9994 10.7934 22.0327 10.711 22.0943C10.6286 22.1559 10.5684 22.2426 10.5394 22.3413L9.95836 24.2856C9.92131 24.4121 9.85964 24.5299 9.7769 24.6324C9.69416 24.7349 9.59198 24.82 9.47623 24.8829C9.36049 24.9458 9.23345 24.9852 9.10244 24.9988C8.97142 25.0125 8.839 25.0001 8.71278 24.9624C8.58657 24.9247 8.46904 24.8624 8.36696 24.7792C8.26489 24.6959 8.18027 24.5933 8.11797 24.4772C8.05567 24.3612 8.01692 24.2339 8.00395 24.1029C7.99097 23.9718 8.00403 23.8394 8.04236 23.7134L8.62342 21.77C8.77762 21.2599 9.09131 20.8127 9.51842 20.494C9.94554 20.1753 10.4636 20.002 10.9965 19.9995H12.0004V18.9966H10.8998C10.639 18.9971 10.3807 18.9459 10.1399 18.846C9.899 18.7461 9.68032 18.5995 9.49646 18.4146C9.45544 18.3745 8.18298 16.5757 8.18298 16.5757C8.03017 16.3589 7.96974 16.0903 8.01498 15.829C8.06021 15.5676 8.20742 15.3349 8.4242 15.1821C8.64098 15.0293 8.90959 14.9689 9.17093 15.0141C9.43228 15.0594 9.66494 15.2066 9.81775 15.4233L10.9281 17.0005L12.0004 16.9985V16.8306C12.0018 16.1145 12.2762 15.426 12.7677 14.9052L12.0902 13.4126C11.9807 13.1712 11.9715 12.8962 12.0647 12.648C12.1579 12.3999 12.3459 12.1989 12.5873 12.0894C12.8287 11.9798 13.1037 11.9706 13.3519 12.0639C13.6 12.1571 13.801 12.345 13.9105 12.5864L14.5642 14.0264C14.5954 14.0235 14.6262 14.0193 14.6571 14.0151C14.7142 14.0073 14.7713 13.9995 14.8305 13.9995H17.1703C17.2286 13.9995 17.2848 14.0072 17.341 14.0148C17.3719 14.019 17.4027 14.0232 17.434 14.0262L18.0902 12.5855C18.1446 12.4659 18.222 12.3583 18.318 12.2687C18.4139 12.1791 18.5266 12.1092 18.6496 12.0632C18.7726 12.0171 18.9034 11.9957 19.0346 12.0002C19.1659 12.0047 19.2949 12.035 19.4144 12.0894C19.534 12.1437 19.6416 12.2211 19.7312 12.3171C19.8208 12.4131 19.8907 12.5258 19.9367 12.6487C19.9828 12.7717 20.0042 12.9025 19.9997 13.0338C19.9952 13.165 19.9649 13.2941 19.9105 13.4136L19.2318 14.9037C19.724 15.4247 19.9989 16.1138 20.0004 16.8306V16.9995H21.0785L22.183 15.4321C22.3358 15.2154 22.5685 15.0681 22.8298 15.0229C22.9592 15.0005 23.0918 15.0038 23.2199 15.0326C23.348 15.0615 23.4692 15.1153 23.5766 15.1909C23.6839 15.2666 23.7753 15.3626 23.8455 15.4736C23.9157 15.5846 23.9634 15.7083 23.9858 15.8377C24.0082 15.9671 24.0049 16.0997 23.976 16.2278C23.9472 16.356 23.8934 16.4771 23.8178 16.5845C23.8178 16.5845 22.5433 18.3843 22.5023 18.4253C22.3181 18.6086 22.0994 18.7537 21.8589 18.8522C21.6185 18.9507 21.3609 19.0008 21.101 18.9995H20.0004V19.9995H21.0033C21.5367 20.0018 22.0552 20.1753 22.4825 20.4944Z" fill="black"/>
</svg>

<svg id="Layer_1" data-name="Layer 1" xmlns="http://www.w3.org/2000/svg" viewBox="0 0 32 32"><defs><style>.cls-1,.cls-2{fill:#0f0f0f;}.cls-2{fill-rule:evenodd;}</style></defs><path class="cls-1" d="M15.375,21.994h1.249A1.376,1.376,0,0,0,18,20.619V16.831A.83.83,0,0,0,17.17,16H14.83a.831.831,0,0,0-.83.831v3.788a1.379,1.379,0,0,0,1.375,1.375Z"/><path class="cls-2" d="M26.18,3.819A4.5,4.5,0,0,0,23,2.5H9A4.5,4.5,0,0,0,4.5,7V25A4.505,4.505,0,0,0,9,29.5H23A4.507,4.507,0,0,0,27.5,25V7A4.5,4.5,0,0,0,26.18,3.819Zm-2.3,20.655a1,1,0,0,1-.594.484A1.071,1.071,0,0,1,23,25a1,1,0,0,1-.958-.713l-.582-1.944A.478.478,0,0,0,21,22H19.7a3.375,3.375,0,0,1-3.073,1.994H15.375A3.375,3.375,0,0,1,12.3,22H11a.471.471,0,0,0-.285.094.483.483,0,0,0-.172.247l-.581,1.945a1,1,0,0,1-.482.6A1.007,1.007,0,0,1,9.1,25a.984.984,0,0,1-.389-.037,1,1,0,0,1-.595-.485,1,1,0,0,1-.076-.764l.581-1.943A2.49,2.49,0,0,1,11,20h1V19H10.9a1.981,1.981,0,0,1-1.4-.582c-.041-.04-1.313-1.839-1.313-1.839a1,1,0,0,1,1.635-1.153L10.928,17,12,17v-.167a2.816,2.816,0,0,1,.768-1.926l-.678-1.492a1,1,0,0,1,1.821-.827l.653,1.44.093-.011A1.237,1.237,0,0,1,14.831,14H17.17a1.2,1.2,0,0,1,.171.015l.093.011.656-1.44A1,1,0,0,1,19.035,12a1.011,1.011,0,0,1,.379.089,1,1,0,0,1,.523.56,1,1,0,0,1-.026.765l-.679,1.49A2.812,2.812,0,0,1,20,16.831V17h1.078l1.105-1.568a1,1,0,0,1,.647-.409.985.985,0,0,1,.39.01,1,1,0,0,1,.357.158,1.022,1.022,0,0,1,.269.283,1,1,0,0,1-.028,1.11s-1.275,1.8-1.316,1.841A1.975,1.975,0,0,1,21.1,19H20v1h1a2.489,2.489,0,0,1,2.374,1.772l.581,1.94a1,1,0,0,1-.077.762Z"/></svg>
